src/components/Icon/assets/breaktime.svg

<svg width="24" height="24" viewBox="0 0 24 24" fill="none" xmlns="http://www.w3.org/2000/svg">
<path fill-rule="evenodd" clip-rule="evenodd" d="M14.9972 5.00049C14.4662 5.00049 14.0002 5.32349 14.0002 5.69249V6.00049H12.0002V5.69249C12.0002 4.20849 13.3442 3.00049 14.9972 3.00049C15.5282 3.00049 15.9942 2.67649 15.9942 2.30749V2.00049H17.9942V2.30749C17.9942 3.79249 16.6502 5.00049 14.9972 5.00049ZM20.0002 12.8218C20.5892 12.5378 21.0002 11.9398 21.0002 11.2438V8.99976H20.0002V12.8218ZM13.0002 18.9957C15.7572 18.9957 18.0002 16.7527 18.0002 13.9957V8.99573H6.00021V13.9957C6.00021 16.7527 8.24321 18.9957 11.0002 18.9957H13.0002ZM20.0002 6.99573V6.99973H23.0002V11.2437C23.0002 13.0797 21.6742 14.6057 19.9302 14.9307C19.7172 16.5157 18.9772 17.9337 17.8852 18.9997H21.0002V20.9997H3.00021V18.9997H6.11521C4.81221 17.7277 4.00021 15.9557 4.00021 13.9957V6.99573H20.0002Z" fill="#65676A"/>
</svg>

<svg xmlns="http://www.w3.org/2000/svg" width="24" height="24" viewBox="0 0 24 24">
    <path fill="#65676A" fill-rule="evenodd" d="M20 6.996V7h3v4.244c0 1.836-1.326 3.362-3.07 3.687-.213 1.585-.953 3.003-2.045 4.069H21v2H3v-2h3.115C4.812 17.728 4 15.956 4 13.996v-7h16zm-2 2H6v5c0 2.757 2.243 5 5 5h2c2.757 0 5-2.243 5-5v-5zM21 9h-1v3.822c.59-.284 1-.882 1-1.578V9zm-3.006-7v.308C17.994 3.793 16.65 5 14.997 5c-.53 0-.997.324-.997.692V6h-2v-.308C12 4.208 13.344 3 14.997 3c.531 0 .997-.324.997-.692V2h2z"/>
</svg>
